src/components/Icon/svg-icon/twitter/share-by-email.svg

<svg xmlns="http://www.w3.org/2000/svg" xmlns:xlink="http://www.w3.org/1999/xlink" width="24" height="24" viewBox="0 0 24 24">
  <defs>
    <path id="share-by-email-a" d="M17.4250665,17.006959 L6.57493354,17.006959 C6.28568173,17.006959 6.05066464,16.7836002 6.05066464,16.5109416 L6.05066464,9.45602415 L11.1178883,12.6514631 C11.3858716,12.8214974 11.6932017,12.9060116 12.0005317,12.9060116 C12.3078618,12.9060116 12.6151918,12.8214974 12.8821117,12.6524692 L17.9503988,9.45602415 L17.9503988,16.5109416 C17.9503988,16.7836002 17.7143183,17.006959 17.4250665,17.006959 M6.57493354,6.993041 L17.4250665,6.993041 C17.7143183,6.993041 17.9503988,7.21639977 17.9503988,7.49006456 L17.9503988,8.29395489 L12.3153057,11.8485789 C12.1238891,11.9683072 11.8761109,11.9693133 11.6857577,11.8475727 L6.05066464,8.29395489 L6.05066464,7.49006456 C6.05066464,7.21639977 6.28568173,6.993041 6.57493354,6.993041 M17.4250665,6 L6.57493354,6 C5.70717812,6 5,6.66907018 5,7.49006456 L5,16.5109416 C5,17.3319359 5.70717812,18 6.57493354,18 L17.4250665,18 C18.2938853,18 19,17.3319359 19,16.5109416 L19,7.49006456 C19,6.66907018 18.2938853,6 17.4250665,6"/>
  </defs>
  <use fill="#677078" xlink:href="#share-by-email-a"/>
</svg>

<svg xmlns="http://www.w3.org/2000/svg" xmlns:xlink="http://www.w3.org/1999/xlink" width="24" height="24"><defs><path id="a" d="M17.425 17.007H6.575a.51.51 0 01-.524-.496V9.456l5.067 3.195a1.648 1.648 0 001.764.001l5.068-3.196v7.055c0 .273-.236.496-.525.496M6.575 6.993h10.85c.29 0 .525.223.525.497v.804l-5.635 3.555a.592.592 0 01-.63-.001L6.052 8.294V7.49c0-.274.235-.497.524-.497M17.425 6H6.575C5.707 6 5 6.67 5 7.49v9.02c0 .822.707 1.49 1.575 1.49h10.85c.869 0 1.575-.668 1.575-1.49V7.49C19 6.67 18.294 6 17.425 6"/></defs><use fill="#677078" xlink:href="#a"/></svg>
